catalog/app/website/pages/AwsMarketplace/logos.svg

<svg width="528" height="99" viewBox="0 0 528 99" fill="none" xmlns="http://www.w3.org/2000/svg">
<g clip-path="url(#clip0_227_375)">
<path d="M414.189 38.6594C414.189 40.5907 414.399 42.1566 414.765 43.305C415.183 44.4533 415.706 45.7061 416.438 47.0632C416.7 47.4808 416.805 47.8984 416.805 48.2638C416.805 48.7857 416.491 49.3077 415.811 49.8297L412.516 52.022C412.045 52.3352 411.574 52.4918 411.156 52.4918C410.633 52.4918 410.11 52.2308 409.587 51.761C408.855 50.978 408.227 50.1429 407.704 49.3077C407.181 48.4203 406.658 47.4286 406.083 46.228C402.003 51.0302 396.877 53.4313 390.706 53.4313C386.312 53.4313 382.808 52.1786 380.245 49.6731C377.682 47.1676 376.375 43.8269 376.375 39.6511C376.375 35.2143 377.944 31.6126 381.134 28.8984C384.325 26.1841 388.561 24.8269 393.948 24.8269C395.727 24.8269 397.557 24.9835 399.492 25.2445C401.428 25.5055 403.415 25.9231 405.507 26.3929V22.5824C405.507 18.6154 404.67 15.8489 403.049 14.2308C401.375 12.6126 398.551 11.8297 394.524 11.8297C392.693 11.8297 390.81 12.0385 388.875 12.5083C386.94 12.978 385.057 13.5522 383.226 14.283C382.389 14.6484 381.762 14.8572 381.396 14.9616C381.03 15.0659 380.768 15.1181 380.559 15.1181C379.827 15.1181 379.461 14.5962 379.461 13.5V10.9423C379.461 10.1072 379.565 9.48078 379.827 9.1154C380.088 8.75001 380.559 8.38463 381.291 8.01924C383.122 7.07968 385.318 6.29672 387.881 5.67034C390.444 4.99177 393.164 4.67858 396.04 4.67858C402.264 4.67858 406.815 6.08792 409.744 8.90661C412.62 11.7253 414.085 16.0055 414.085 21.7473V38.6594H414.189ZM392.955 46.5934C394.681 46.5934 396.459 46.2802 398.342 45.6539C400.225 45.0275 401.898 43.8791 403.311 42.3132C404.147 41.3214 404.775 40.2253 405.089 38.9725C405.403 37.7198 405.612 36.2061 405.612 34.4313V32.239C404.095 31.8736 402.474 31.5605 400.8 31.3517C399.126 31.1429 397.505 31.0385 395.884 31.0385C392.379 31.0385 389.816 31.717 388.09 33.1264C386.364 34.5357 385.528 36.5192 385.528 39.1291C385.528 41.5824 386.155 43.4094 387.463 44.6621C388.718 45.967 390.549 46.5934 392.955 46.5934ZM434.954 52.2308C434.012 52.2308 433.385 52.0742 432.966 51.7088C432.548 51.3956 432.182 50.6648 431.868 49.6731L419.577 9.32419C419.263 8.28023 419.106 7.60166 419.106 7.23628C419.106 6.40111 419.524 5.93133 420.361 5.93133H425.487C426.481 5.93133 427.161 6.08792 427.527 6.45331C427.945 6.7665 428.259 7.49727 428.573 8.48902L437.36 43.044L445.519 8.48902C445.78 7.44507 446.094 6.7665 446.512 6.45331C446.931 6.14012 447.663 5.93133 448.605 5.93133H452.789C453.783 5.93133 454.462 6.08792 454.881 6.45331C455.299 6.7665 455.665 7.49727 455.875 8.48902L464.138 43.4616L473.187 8.48902C473.501 7.44507 473.867 6.7665 474.233 6.45331C474.651 6.14012 475.331 5.93133 476.273 5.93133H481.137C481.974 5.93133 482.444 6.34891 482.444 7.23628C482.444 7.49727 482.392 7.75825 482.34 8.07144C482.287 8.38463 482.183 8.80221 481.974 9.37639L469.369 49.7253C469.055 50.7692 468.689 51.4478 468.27 51.761C467.852 52.0742 467.172 52.283 466.283 52.283H461.785C460.791 52.283 460.111 52.1264 459.693 51.761C459.274 51.3956 458.908 50.717 458.699 49.6731L450.592 16.0055L442.537 49.6209C442.276 50.6648 441.962 51.3434 441.544 51.7088C441.125 52.0742 440.393 52.2308 439.452 52.2308H434.954ZM502.162 53.6401C499.443 53.6401 496.723 53.3269 494.108 52.7006C491.493 52.0742 489.453 51.3956 488.093 50.6127C487.256 50.1429 486.681 49.6209 486.472 49.1511C486.262 48.6813 486.158 48.1594 486.158 47.6896V45.0275C486.158 43.9313 486.576 43.4094 487.361 43.4094C487.675 43.4094 487.988 43.4616 488.302 43.5659C488.616 43.6703 489.087 43.8791 489.61 44.0879C491.388 44.8709 493.323 45.4973 495.363 45.9148C497.455 46.3324 499.495 46.5412 501.587 46.5412C504.882 46.5412 507.445 45.967 509.223 44.8187C511.002 43.6703 511.943 42 511.943 39.8599C511.943 38.3984 511.472 37.1978 510.531 36.2061C509.589 35.2143 507.811 34.3269 505.248 33.4918L497.664 31.1429C493.846 29.9423 491.022 28.1676 489.296 25.8187C487.57 23.522 486.681 20.9643 486.681 18.25C486.681 16.0577 487.152 14.1264 488.093 12.4561C489.035 10.7857 490.29 9.32419 491.859 8.17584C493.428 6.97529 495.206 6.08792 497.298 5.46155C499.39 4.83518 501.587 4.57419 503.888 4.57419C505.039 4.57419 506.242 4.62639 507.393 4.78298C508.596 4.93957 509.694 5.14836 510.792 5.35716C511.838 5.61814 512.832 5.87913 513.774 6.19232C514.715 6.50551 515.447 6.81869 515.97 7.13188C516.703 7.54946 517.226 7.96705 517.539 8.43683C517.853 8.85441 518.01 9.42858 518.01 10.1594V12.6126C518.01 13.7088 517.592 14.283 516.807 14.283C516.389 14.283 515.709 14.0742 514.82 13.6566C511.838 12.2995 508.491 11.6209 504.778 11.6209C501.796 11.6209 499.443 12.0907 497.821 13.0824C496.2 14.0742 495.363 15.5879 495.363 17.728C495.363 19.1896 495.886 20.4423 496.932 21.4341C497.978 22.4258 499.913 23.4176 502.686 24.305L510.112 26.6539C513.878 27.8544 516.598 29.5247 518.219 31.6648C519.841 33.805 520.625 36.2583 520.625 38.9725C520.625 41.217 520.155 43.2528 519.265 45.0275C518.324 46.8022 517.069 48.3681 515.447 49.6209C513.826 50.9258 511.891 51.8654 509.642 52.544C507.288 53.2747 504.83 53.6401 502.162 53.6401Z" fill="white"/>
<path fill-rule="evenodd" clip-rule="evenodd" d="M512.048 79.0083C494.84 91.6923 469.839 98.4258 448.343 98.4258C418.217 98.4258 391.072 87.3077 370.569 68.8297C368.948 67.3682 370.412 65.3846 372.347 66.533C394.524 79.3737 421.878 87.1511 450.174 87.1511C469.264 87.1511 490.238 83.1841 509.537 75.0412C512.414 73.7363 514.872 76.9204 512.048 79.0083Z" fill="#FF9900"/>
<path fill-rule="evenodd" clip-rule="evenodd" d="M519.213 70.8654C517.016 68.0467 504.673 69.5083 499.077 70.1868C497.403 70.3956 497.141 68.9341 498.658 67.8379C508.491 60.9478 524.653 62.9313 526.536 65.228C528.418 67.577 526.013 83.7061 516.807 91.4313C515.395 92.6319 514.035 92.0055 514.663 90.4396C516.755 85.272 521.41 73.6319 519.213 70.8654Z" fill="#FF9900"/>
</g>
<path d="M314.996 47.0723V55.4062H281.859V47.0723H314.996ZM302.977 33.957V69.1523H293.912V33.957H302.977Z" fill="white"/>
<g clip-path="url(#clip1_227_375)">
<path d="M144.492 87.3363H131.324V78.4399H131.09C129.859 81.2124 127.725 83.659 124.689 85.7796C121.653 87.9002 118.058 88.9584 113.905 88.9541C110.288 88.9541 107.192 88.3194 104.617 87.05C102.154 85.8694 99.9852 84.1517 98.2708 82.0229C96.5974 79.9008 95.3636 77.4657 94.6417 74.8601C93.8696 72.1555 93.4804 69.3557 93.4855 66.5427V31.8867H107.331V62.6156C107.335 64.3152 107.45 66.0127 107.674 67.6974C107.876 69.3736 108.384 70.9983 109.174 72.4897C109.93 73.9093 111.019 75.1235 112.347 76.0277C113.694 76.9518 115.482 77.415 117.71 77.4171C119.597 77.4548 121.465 77.0435 123.162 76.2171C124.859 75.3906 126.335 74.1727 127.47 72.6634C128.538 71.2205 129.339 69.5973 129.834 67.8711C130.369 66.0913 130.642 64.2427 130.643 62.384V31.8867H144.492V87.3363Z" fill="white"/>
<path d="M159.062 31.8867H172.908V87.3363H159.062V31.8867Z" fill="white"/>
<path d="M187.716 0H201.561V87.3363H187.716V0Z" fill="white"/>
<path d="M215.544 31.8867V15.8276H229.158V31.8867H243V42.9734H229.158V68.7363C229.158 71.2043 229.6 73.2413 230.485 74.8473C231.369 76.4533 233.349 77.2617 236.426 77.2724C237.432 77.2643 238.436 77.1675 239.425 76.9829C240.421 76.8174 241.393 76.5267 242.316 76.1177L242.766 86.9889C241.346 87.5003 239.878 87.8677 238.385 88.0857C236.782 88.3483 235.16 88.4838 233.535 88.491C229.849 88.491 226.851 87.971 224.543 86.931C222.38 86.0039 220.492 84.5326 219.064 82.6598C217.7 80.8058 216.755 78.6766 216.296 76.4201C215.781 73.9319 215.529 71.3963 215.544 68.8553V31.8867Z" fill="white"/>
<path d="M60.6234 58.8401C65.8428 48.5768 61.7663 36.0193 51.5182 30.7921C41.2701 25.565 28.7313 29.6476 23.5118 39.9109C18.2924 50.1742 22.369 62.7316 32.6171 67.9588C42.8651 73.1859 55.404 69.1034 60.6234 58.8401Z" fill="#E98924"/>
<path d="M84.1366 49.3804C84.1366 38.2057 79.7041 27.4888 71.8141 19.5872C63.9242 11.6855 53.2231 7.2464 42.0651 7.2464V19.536C47.9583 19.536 53.7193 21.2862 58.6193 24.5651C63.5194 27.8441 67.3386 32.5047 69.5938 37.9574C71.8491 43.4102 72.4392 49.4103 71.2894 55.1989C70.1397 60.9875 67.3018 66.3047 63.1347 70.478C58.9675 74.6514 53.6582 77.4935 47.8782 78.6449C42.0981 79.7963 36.1069 79.2054 30.6623 76.9468C25.2176 74.6882 20.564 70.8633 17.2898 65.956C14.0157 61.0486 12.2681 55.2792 12.2681 49.3772C12.2766 41.4654 15.4187 33.8801 21.0048 28.2857C26.591 22.6912 34.165 19.5445 42.0651 19.536V7.24962C30.907 7.24962 20.2059 11.6887 12.316 19.5904C4.42605 27.492 -0.00646973 38.209 -0.00646973 49.3836C-0.00646973 60.5582 4.42605 71.2751 12.316 79.1768C20.2059 87.0785 30.907 91.5176 42.0651 91.5176L81.5192 92.0064L68.8206 81.8975C73.6158 77.9491 77.4768 72.9846 80.1252 67.3616C82.7737 61.7387 84.1437 55.5975 84.1366 49.3804Z" fill="white"/>
</g>
<defs>
<clipPath id="clip0_227_375">
<rect width="159" height="95" fill="white" transform="translate(369 4)"/>
</clipPath>
<clipPath id="clip1_227_375">
<rect width="243" height="92" fill="white"/>
</clipPath>
</defs>
</svg>

<svg width="528" height="99" fill="none" xmlns="http://www.w3.org/2000/svg"><g clip-path="url(#clip0_227_375)"><path d="M414.189 38.66c0 1.93.21 3.497.576 4.645a27.877 27.877 0 001.673 3.758c.262.418.367.835.367 1.2 0 .523-.314 1.045-.994 1.567l-3.295 2.192c-.471.313-.942.47-1.36.47-.523 0-1.046-.261-1.569-.731a16.166 16.166 0 01-1.883-2.453 40.277 40.277 0 01-1.621-3.08c-4.08 4.802-9.206 7.203-15.377 7.203-4.394 0-7.898-1.252-10.461-3.758-2.563-2.505-3.87-5.846-3.87-10.022 0-4.437 1.569-8.038 4.759-10.753 3.191-2.714 7.427-4.071 12.814-4.071 1.779 0 3.609.156 5.544.417 1.936.262 3.923.68 6.015 1.149v-3.81c0-3.968-.837-6.734-2.458-8.352-1.674-1.618-4.498-2.401-8.525-2.401a23.84 23.84 0 00-5.649.678c-1.935.47-3.818 1.044-5.649 1.775-.837.365-1.464.574-1.83.679-.366.104-.628.156-.837.156-.732 0-1.098-.522-1.098-1.618v-2.558c0-.835.104-1.461.366-1.827.261-.365.732-.73 1.464-1.096 1.831-.94 4.027-1.722 6.59-2.349 2.563-.678 5.283-.991 8.159-.991 6.224 0 10.775 1.409 13.704 4.228 2.876 2.818 4.341 7.099 4.341 12.84V38.66h.104zm-21.234 7.933c1.726 0 3.504-.313 5.387-.94 1.883-.625 3.556-1.774 4.969-3.34.836-.992 1.464-2.088 1.778-3.34.314-1.253.523-2.767.523-4.542V32.24a43.755 43.755 0 00-4.812-.887 39.488 39.488 0 00-4.916-.314c-3.505 0-6.068.679-7.794 2.088-1.726 1.41-2.562 3.393-2.562 6.003 0 2.453.627 4.28 1.935 5.533 1.255 1.305 3.086 1.931 5.492 1.931zm41.999 5.638c-.942 0-1.569-.157-1.988-.522-.418-.313-.784-1.044-1.098-2.036L419.577 9.324c-.314-1.044-.471-1.722-.471-2.088 0-.835.418-1.305 1.255-1.305h5.126c.994 0 1.674.157 2.04.522.418.313.732 1.044 1.046 2.036l8.787 34.555 8.159-34.555c.261-1.044.575-1.723.993-2.036.419-.313 1.151-.522 2.093-.522h4.184c.994 0 1.673.157 2.092.522.418.313.784 1.044.994 2.036l8.263 34.973 9.049-34.973c.314-1.044.68-1.723 1.046-2.036.418-.313 1.098-.522 2.04-.522h4.864c.837 0 1.307.418 1.307 1.305 0 .261-.052.522-.104.835-.053.314-.157.731-.366 1.305l-12.605 40.35c-.314 1.043-.68 1.722-1.099 2.035-.418.313-1.098.522-1.987.522h-4.498c-.994 0-1.674-.157-2.092-.522-.419-.365-.785-1.044-.994-2.088l-8.107-33.667-8.055 33.615c-.261 1.044-.575 1.722-.993 2.088-.419.365-1.151.522-2.092.522h-4.498zm67.208 1.41a34.68 34.68 0 01-8.054-.94c-2.615-.627-4.655-1.305-6.015-2.088-.837-.47-1.412-.992-1.621-1.462a3.665 3.665 0 01-.314-1.461v-2.662c0-1.097.418-1.619 1.203-1.619.314 0 .627.053.941.157.314.104.785.313 1.308.522a28.47 28.47 0 005.753 1.827 31.47 31.47 0 006.224.626c3.295 0 5.858-.574 7.636-1.722 1.779-1.149 2.72-2.819 2.72-4.96 0-1.46-.471-2.661-1.412-3.653-.942-.992-2.72-1.88-5.283-2.714l-7.584-2.35c-3.818-1.2-6.642-2.974-8.368-5.323-1.726-2.297-2.615-4.855-2.615-7.569 0-2.192.471-4.124 1.412-5.794.942-1.67 2.197-3.132 3.766-4.28 1.569-1.2 3.347-2.088 5.439-2.714 2.092-.627 4.289-.888 6.59-.888 1.151 0 2.354.052 3.505.209 1.203.157 2.301.365 3.399.574 1.046.261 2.04.522 2.982.835.941.314 1.673.627 2.196.94.733.417 1.256.835 1.569 1.305.314.417.471.992.471 1.722v2.454c0 1.096-.418 1.67-1.203 1.67-.418 0-1.098-.209-1.987-.626-2.982-1.357-6.329-2.036-10.042-2.036-2.982 0-5.335.47-6.957 1.461-1.621.992-2.458 2.506-2.458 4.646 0 1.462.523 2.714 1.569 3.706 1.046.992 2.981 1.984 5.754 2.871l7.426 2.349c3.766 1.2 6.486 2.87 8.107 5.01 1.622 2.141 2.406 4.594 2.406 7.308 0 2.245-.47 4.28-1.36 6.056-.941 1.774-2.196 3.34-3.818 4.593-1.621 1.305-3.556 2.244-5.805 2.923-2.354.73-4.812 1.096-7.48 1.096z" fill="#fff"/><path fill-rule="evenodd" clip-rule="evenodd" d="M512.048 79.008c-17.208 12.684-42.209 19.418-63.705 19.418-30.126 0-57.271-11.118-77.774-29.596-1.621-1.462-.157-3.445 1.778-2.297 22.177 12.84 49.531 20.618 77.827 20.618 19.09 0 40.064-3.967 59.363-12.11 2.877-1.305 5.335 1.88 2.511 3.967z" fill="#F90"/><path fill-rule="evenodd" clip-rule="evenodd" d="M519.213 70.865c-2.197-2.818-14.54-1.357-20.136-.678-1.674.209-1.936-1.253-.419-2.35 9.833-6.89 25.995-4.906 27.878-2.609 1.882 2.349-.523 18.478-9.729 26.203-1.412 1.2-2.772.575-2.144-.991 2.092-5.168 6.747-16.808 4.55-19.575z" fill="#F90"/></g><path d="M314.996 47.072v8.334h-33.137v-8.334h33.137zm-12.019-13.115v35.195h-9.065V33.957h9.065z" fill="#fff"/><g clip-path="url(#clip1_227_375)"><path d="M144.492 87.336h-13.168V78.44h-.234c-1.231 2.772-3.365 5.219-6.401 7.34-3.036 2.12-6.631 3.178-10.784 3.174-3.617 0-6.713-.635-9.288-1.904a18.312 18.312 0 01-6.346-5.027 20.337 20.337 0 01-3.63-7.163 30.1 30.1 0 01-1.156-8.317V31.887h13.846v30.729c.004 1.7.119 3.397.343 5.081.202 1.677.71 3.301 1.5 4.793a9.922 9.922 0 003.173 3.538c1.347.924 3.135 1.387 5.363 1.39a11.907 11.907 0 009.76-4.755 15.01 15.01 0 002.364-4.792c.535-1.78.808-3.628.809-5.487V31.887h13.849v55.45zM159.062 31.887h13.846v55.45h-13.846v-55.45zM187.716 0h13.845v87.336h-13.845V0zM215.544 31.887v-16.06h13.614v16.06H243v11.086h-13.842v25.763c0 2.468.442 4.505 1.327 6.111.884 1.606 2.864 2.415 5.941 2.425a17.098 17.098 0 002.999-.29 11.989 11.989 0 002.891-.864l.45 10.87c-1.42.512-2.888.88-4.381 1.098a30.849 30.849 0 01-4.85.405c-3.686 0-6.684-.52-8.992-1.56a13.656 13.656 0 01-5.479-4.271 15.867 15.867 0 01-2.768-6.24 36.268 36.268 0 01-.752-7.565V31.887z" fill="#fff"/><path d="M60.623 58.84c5.22-10.263 1.143-22.82-9.105-28.048-10.248-5.227-22.787-1.144-28.006 9.119-5.22 10.263-1.143 22.82 9.105 28.048 10.248 5.227 22.787 1.144 28.006-9.119z" fill="#E98924"/><path d="M84.137 49.38a42.165 42.165 0 00-12.323-29.793 42.04 42.04 0 00-29.749-12.34v12.289c5.893 0 11.654 1.75 16.554 5.03 4.9 3.278 8.72 7.939 10.975 13.391A29.882 29.882 0 0171.289 55.2a29.855 29.855 0 01-8.154 15.279 29.783 29.783 0 01-15.257 8.167 29.756 29.756 0 01-17.216-1.698A29.807 29.807 0 0117.29 65.956a29.873 29.873 0 01-5.022-16.579 29.896 29.896 0 018.737-21.091 29.807 29.807 0 0121.06-8.75V7.25a42.04 42.04 0 00-29.749 12.34A42.166 42.166 0 00-.006 49.384a42.166 42.166 0 0012.322 29.793 42.04 42.04 0 0029.75 12.34l39.453.49-12.698-10.11a42.024 42.024 0 0011.304-14.535 42.086 42.086 0 004.012-17.982z" fill="#fff"/></g><defs><clipPath id="clip0_227_375"><path fill="#fff" transform="translate(369 4)" d="M0 0h159v95H0z"/></clipPath><clipPath id="clip1_227_375"><path fill="#fff" d="M0 0h243v92H0z"/></clipPath></defs></svg>
